packages/dnb-ui-lib/assets/icons/bankid_medium.svg

<svg width="24" height="24" viewBox="0 0 24 24" fill="none" xmlns="http://www.w3.org/2000/svg">
<path fill-rule="evenodd" clip-rule="evenodd" d="M0.5 4.5C0.223858 4.5 0 4.72386 0 5V6.25C0 6.52614 0.223858 6.75 0.5 6.75H5.5C5.77614 6.75 6 6.52614 6 6.25V5C6 4.72386 5.77614 4.5 5.5 4.5H0.5ZM18.5 4.5C18.2239 4.5 18 4.72386 18 5V6.25C18 6.52614 18.2239 6.75 18.5 6.75H23.5C23.7761 6.75 24 6.52614 24 6.25V5C24 4.72386 23.7761 4.5 23.5 4.5H18.5ZM9 8.75C9 8.47386 9.22386 8.25 9.5 8.25H14.5C14.7761 8.25 15 8.47386 15 8.75V10C15 10.2761 14.7761 10.5 14.5 10.5H9.5C9.22386 10.5 9 10.2761 9 10V8.75ZM0.5 12.75C0.223858 12.75 0 12.9739 0 13.25V14.5C0 14.7761 0.223858 15 0.5 15H5.5C5.77614 15 6 14.7761 6 14.5V13.25C6 12.9739 5.77614 12.75 5.5 12.75H0.5ZM0 17.75C0 17.4739 0.223858 17.25 0.5 17.25H5.5C5.77614 17.25 6 17.4739 6 17.75V19C6 19.2761 5.77614 19.5 5.5 19.5H0.5C0.223858 19.5 0 19.2761 0 19V17.75ZM18.5 8.25C18.2239 8.25 18 8.47386 18 8.75V10C18 10.2761 18.2239 10.5 18.5 10.5H23.5C23.7761 10.5 24 10.2761 24 10V8.75C24 8.47386 23.7761 8.25 23.5 8.25H18.5ZM9 13.25C9 12.9739 9.22386 12.75 9.5 12.75H14.5C14.7761 12.75 15 12.9739 15 13.25V14.5C15 14.7761 14.7761 15 14.5 15H9.5C9.22386 15 9 14.7761 9 14.5V13.25ZM18.5 17.25C18.2239 17.25 18 17.4739 18 17.75V19C18 19.2761 18.2239 19.5 18.5 19.5H23.5C23.7761 19.5 24 19.2761 24 19V17.75C24 17.4739 23.7761 17.25 23.5 17.25H18.5Z" fill="#333333"/>
</svg>

<svg width="24" height="24" viewBox="0 0 24 24" fill="none" xmlns="http://www.w3.org/2000/svg"><path fill-rule="evenodd" clip-rule="evenodd" d="M.5 4.5A.5.5 0 000 5v1.25a.5.5 0 00.5.5h5a.5.5 0 00.5-.5V5a.5.5 0 00-.5-.5h-5zm18 0a.5.5 0 00-.5.5v1.25a.5.5 0 00.5.5h5a.5.5 0 00.5-.5V5a.5.5 0 00-.5-.5h-5zM9 8.75a.5.5 0 01.5-.5h5a.5.5 0 01.5.5V10a.5.5 0 01-.5.5h-5A.5.5 0 019 10V8.75zm-8.5 4a.5.5 0 00-.5.5v1.25a.5.5 0 00.5.5h5a.5.5 0 00.5-.5v-1.25a.5.5 0 00-.5-.5h-5zm-.5 5a.5.5 0 01.5-.5h5a.5.5 0 01.5.5V19a.5.5 0 01-.5.5h-5A.5.5 0 010 19v-1.25zm18.5-9.5a.5.5 0 00-.5.5V10a.5.5 0 00.5.5h5a.5.5 0 00.5-.5V8.75a.5.5 0 00-.5-.5h-5zm-9.5 5a.5.5 0 01.5-.5h5a.5.5 0 01.5.5v1.25a.5.5 0 01-.5.5h-5a.5.5 0 01-.5-.5v-1.25zm9.5 4a.5.5 0 00-.5.5V19a.5.5 0 00.5.5h5a.5.5 0 00.5-.5v-1.25a.5.5 0 00-.5-.5h-5z" fill="#333"/></svg>
